X:1
T:O venturoso dia
T:Francisco Guerrero
T:Source : Secondo libro delle Laude spirituali a tre et a quattro voci---Roma---A.Gardano---1583. Editor : André Vierendeels (30/11/17). Notes : Original clefs : G2, G2, C2 Editorial accidentals above the staff "Canciones y villanescas espirituales" Music compiled by Francisco Soto de Langa
T:O venturoso dia
T:©
T:©
T:©
T:©
C:Francisco Guerrero
Z:©
%%score [ 1 2 3 ]
L:1/8
Q:1/4=120
M:4/4
K:C
V:1 treble nm="Soprano 1" snm="S 1"
V:2 treble nm="Soprano 2" snm="S 2"
V:3 treble nm="Alto" snm="A"
V:1
"^1)" d4 d4- | d2 c2 B2 A2 | c4 B4 | z8 | z8 | z4 d4 | d3 c B2 A2- | A2 c4 B2 | d4 c2 B2 | d4 B4 | %10
w: O ven-|* tu- ro- so|di- a,|||O|ven- tu- ro- so|_ di- a,|O fe- liz|ho- ra,|
w: O mue-|* stra d'a- mor|gran- de,|||O|mue- stra d'a- mor|_ gran- de,|y sin me-|di- da,|
 d4 c2 c2 | A4 B4 | z2 d2 e3 e | c2 d2 e4 | d4 z4 | z4 z2 d2 | e3 e c2 d2 | e4 d2 d2- | d2 e2 c4 | %19
w: O fe- liz|ho- ra|que tan de|bue- na ga-|na|que|tan de bue- na|ga- na, Chri-|* sto me|
w: y sin me-|di- da,|que por que|yo Vi- vie-|se,|Chri-|sto me dio su|san- gre que|_ bei- sie-|
 B8 | z4 z2 d2 | d6 c2 | B2 A2 c4- | c2 B2 A4 | B8 |:"^RESIDUUM" d8 | e6 d2 | d4 z2 d2 | e2 c2 d4 | %29
w: dio|su|car- ne|so- be- ra-||na,|Y|di- xo|me, y|di- xo me|
w: se,|te|di- *||* * xo|me.|||||
 z4 c4 | e4 z2 A2 | c2 c2 e3 e | d2 B2 c4 | B8 | z4 e4 | d4 B4 | c8 | d4 B4 | G2 G2 c2 A2 | B8 | %40
w: mor-|tal, mor-|tal, mor- tal to-|do soy tuy-|o|to-|do soy|tu-|yo, fe-|nez- ca ya tu|mal,|
w: |||||||||||
 z8 | z4 B4 | G4 G4 | c4 A4 | B8 :| %45
w: |fe-|nez- ca|ya tu|mal|
w: |||||
V:2
"^2)" z8 | z8 | z4 d4 | d6 c2 | B2 A2 c4 | B4 z2 B2 | B3 c d2 d2 | e4 d4 | B4 G2 G2 | A4 G4 | %10
w: ||O|ven- tu-|ro- so di-|a, O|ven- tu- ro- so|di- a,|O fe- liz|ho- ra,|
 z2 A2 A2 G2- |"^#" G2 F2 G4 | z2 B2 c3 c | A2 B2 c4 | B4 z2 G2 | A3 A F2 F2 | G4 A4 | c4 B4 | %18
w: O fe- liz|_ ho- ra|que tan de|bue- na ga-|na, que|tan de bue- na|ga- na,|Chri- sto|
"^#" G6 F2 | G4 z2 d2 | d4 c2 B2 | A2 B3 A G2- | G2 F2 E2 A2 |"^#" G2 G4 F2 | G8 |: B8 | c6 A2 | %27
w: me di-|o, su|car- ne so-|be- ra- * *|* * na, so-|be- ra- *|na.|Y|di- xo|
 B4 z2 B2 | G2 G2 A4 | z4 A4 | c4 z2 c2 | e4 z2 c2 | B2 G2 A4- | A4 ^G4 | z4 c4 | B4 d2 e2- | %36
w: me, y|di- xo me|mor-|tal, mor-|tal to-|do soy tu-|* yo,|to-|do soy tu-|
 e2 d2 c4 | B4 z2 G2 | E2 E2 E2 ^F2 | G4 z2 B2 | G2 G2 c2 A2 | B4 z2 G2 | E4 E4 | E4 ^F4 | G8 :| %45
w: |yo, fe-|nez- ca ya tu|mal, fe-|nez- ca ya tu|mal, fe-|nez- ca|ya tu|mal.|
V:3
 z8 | z8 |"^1)""^1)" z8 |"^2)" G4 G4- | G2 F2 E2 C2 | G2 G2 z2 G2 | G3 A G2 F2 | E2 C2 G4 | %8
w: |||O ven-|* tu- ro- so|di- a, O|ven- tu- ro- so|di- * a,|
w: |||O mue-|* stra d'a- mor|gran- de, O|mue- stro d'a- mor|gran- * de,|
 z2 G2 C2 E2 | D4 E4 | z2 D2 F2 C2 | D4 G,4 | z2 G2 C3 C | F2 D2 C2 C2 | z2 D2 E3 E | C2 C2 D2 D2 | %16
w: O fe- liz|ho- ra,|O fe- liz|ho- ra,|que tan de|bue- na ga- na,|que tan de|bue- na ga- na,|
w: y sin me-|di- da,|y so- sin-|di- da,|que por que|yo Vi- vie- se,|que por que|yo vi- vie- se,|
 z2 C2 F2 D2 | C4 G2 G,2- | G,2 C2 A,4 | G,2 G2 G4- | G2 F2 E2 DE | FD G2 E4 | D4 A,3 B, | %23
w: de bue- na|ga- na, Chri-|* sto me|dio, su car-|* ne so- be- *|* * ra- *|na, so- *|
w: Chri- sto me|dio san- gre|_ que bei-|sie- se, te|_ di- * * *|* * * xo|me, di- *|
 C2 G,2 D4 | G,8 |: G8 | C6 D2 | G,4 z2 G2 | C2 E2 D4 | z4 F4 | C4 z2 F2 | C4 z2 C2 | D2 E2 A,4 | %33
w: * be- ra-|na.|Y|di- xo|me, y|di- xo me|mor-|tal, mor-|tal to-|do soy tu-|
w: * * xo|me.|||||||||
 E8 | z4 C4 | G4 G4 | A8 | G4 z2 G,2 | C2 C2 A,2 D2 | G,4 z2 G2 | E2 E2 E2 ^F2 | G4 z2 G,2 | %42
w: yo|to-|do sou|tu-|yo, fe-|nez- ca ya tu|mal, fe-|nez- ca ya tu|mal, fe-|
w: |||||||||
 C4 C4 | A,4 D4 | G,8 :| %45
w: nez- ca|ya tu|mal.|
w: |||

